X:4422
L:1/8
M:4/4
K:C
[M:4/4][K:A] fe D vb .Tua a De Daa ve[Q:1/8=180] .e2 (3cBA e2 (3cBA | eAcA Bcdf | e2 (3cBA eAcA | 
 Bcdc BAFA | e2 (3cBA e2 (3cBA | eAcA Bcdf | e3 c dcBA | FABc d3 z :| df f2 d2 eA | df f2 afeA | 
 df f2 dfec | dcBA FABc | df f2 d2 ef | df f2 afef | df f2 dfec | dcBA FAdF | e8 ||

